X:510
T: Johnny's Gone to France
T: T\'a Se\'ainin Bailithe leis chun na Fraince
S: B.Breathnach:"Ceol Rince na hEireann" III/204
Z: B.Black
L: 1/8
M: 4/4
R: reel
K: Edor
Beee BdAF|EFDE FAAA|Beee BdAF|EFDE FDDA|
Beee BdAF|EFDE FAAA|BABc dBAF|EFDE FD D2 ||
dfed BdAB|dfed Beec|defd BdAF|EFDE FD D2 :|
